src/assets/img/Careers/icons/lampicon.svg

<svg width="34" height="34" viewBox="0 0 34 34" fill="none" xmlns="http://www.w3.org/2000/svg">
<g id="Icon">
<g id="Vector">
<path d="M17 1.0625C10.5452 1.0625 5.3125 6.29517 5.3125 12.75C5.3125 17.0719 7.65894 20.8446 11.1423 22.8656C12.1134 23.4291 12.7215 24.2936 12.749 25.1636C12.7642 25.6435 13.0993 26.0536 13.5666 26.164C14.0644 26.2817 14.5716 26.3743 15.0869 26.4405C15.5454 26.4994 15.9378 26.1322 15.9378 25.67V19.0668C15.4854 19.0168 15.0422 18.9352 14.6104 18.824C14.0421 18.6778 13.7 18.0985 13.8463 17.5302C13.9926 16.9619 14.5718 16.6198 15.1401 16.7661C15.7334 16.9188 16.3565 17.0003 17.0003 17.0003C17.644 17.0003 18.2671 16.9188 18.8604 16.7661C19.4287 16.6198 20.008 16.9619 20.1542 17.5302C20.3005 18.0985 19.9584 18.6778 19.3901 18.824C18.9583 18.9352 18.5151 19.0168 18.0628 19.0668V25.6699C18.0628 26.1321 18.4552 26.4994 18.9136 26.4404C19.4287 26.3742 19.9358 26.2817 20.4334 26.164C20.9007 26.0536 21.2358 25.6435 21.251 25.1636C21.2785 24.2936 21.8866 23.4291 22.8577 22.8656C26.3411 20.8446 28.6875 17.0719 28.6875 12.75C28.6875 6.29517 23.4548 1.0625 17 1.0625Z" fill="#CAFF33"/>
<path fill-rule="evenodd" clip-rule="evenodd" d="M12.7686 28.1912C12.878 27.6147 13.434 27.2359 14.0105 27.3453C14.9781 27.5288 15.9773 27.625 17 27.625C18.0227 27.625 19.0219 27.5288 19.9895 27.3453C20.566 27.2359 21.122 27.6147 21.2314 28.1912C21.3407 28.7677 20.962 29.3237 20.3855 29.4331C19.2881 29.6413 18.1563 29.75 17 29.75C15.8438 29.75 14.7119 29.6413 13.6145 29.4331C13.038 29.3237 12.6593 28.7677 12.7686 28.1912Z" fill="#CAFF33"/>
<path fill-rule="evenodd" clip-rule="evenodd" d="M13.8183 31.654C13.8793 31.0703 14.4019 30.6467 14.9855 30.7078C15.6472 30.777 16.3193 30.8125 17 30.8125C17.6807 30.8125 18.3528 30.777 19.0145 30.7078C19.5981 30.6467 20.1207 31.0703 20.1817 31.654C20.2428 32.2376 19.8192 32.7602 19.2355 32.8212C18.5005 32.8981 17.7547 32.9375 17 32.9375C16.2453 32.9375 15.4995 32.8981 14.7645 32.8212C14.1808 32.7602 13.7572 32.2376 13.8183 31.654Z" fill="#CAFF33"/>
</g>
</g>
</svg>

<svg width="34" height="34" fill="none" xmlns="http://www.w3.org/2000/svg"><g fill="#CAFF33"><path d="M17 1.063c-6.455 0-11.688 5.232-11.688 11.687 0 4.322 2.347 8.095 5.83 10.116.971.563 1.58 1.428 1.607 2.298.015.48.35.89.818 1 .497.118 1.005.21 1.52.276a.763.763 0 0 0 .85-.77v-6.603a9.51 9.51 0 0 1-1.327-.243 1.062 1.062 0 1 1 .53-2.058A7.453 7.453 0 0 0 17 17c.644 0 1.267-.081 1.86-.234a1.062 1.062 0 1 1 .53 2.058 9.51 9.51 0 0 1-1.327.243v6.603c0 .462.392.83.85.77a14.794 14.794 0 0 0 1.52-.276c.468-.11.803-.52.818-1 .027-.87.636-1.735 1.607-2.298a11.683 11.683 0 0 0 5.83-10.116c0-6.455-5.233-11.688-11.688-11.688Z"/><path fill-rule="evenodd" clip-rule="evenodd" d="M12.769 28.191c.109-.576.665-.955 1.242-.846.967.184 1.966.28 2.989.28s2.022-.096 2.99-.28a1.063 1.063 0 0 1 .396 2.088A18.15 18.15 0 0 1 17 29.75c-1.156 0-2.288-.109-3.386-.317a1.063 1.063 0 0 1-.845-1.242ZM13.818 31.654a1.062 1.062 0 0 1 1.168-.946 19.364 19.364 0 0 0 4.029 0 1.062 1.062 0 1 1 .22 2.113 21.478 21.478 0 0 1-4.47 0 1.062 1.062 0 0 1-.947-1.167Z"/></g></svg>
